X: 0007
T: G\aards Jonas Polska
O: M.E.
R: polska
P: (G-str\"angen uppst\"amd till a.)
B: Paul B\"ackstr\"om's "L\aatar fr\aan Dalarna" collection" 1974
Z: 2022 John Chambers <jc:trillian.mit.edu>
M: 3/4
L: 1/8
K: Dm
%%text K.E.F.14.
%%slurgraces 1
%%graceslurs 1
% - - - - - - - - - -
|:\
D>E "_>"[F2A,2] (3(EFE) | Dz "_>"[E4A,4] |\
{a}^ga/-g/ fg/f/ ed | "^>"^c-B/c/ d4 :|\
"_>"A>^c de f>a | Tge/g/ (fd/f/) "_>"e2 |
{^c}d>e fe fa | Tgf/g/ "_>"a4 ||\\
.A.^c .d.e Tf.a | fd/f/ .e.^c .A._B |\
"_>"A>F DF E>^C | (3(DEF) D4 |]
% - - - - - - - - - -
%%text Jmf. S.L.nr 499

%%sep 2 1 500
%%sep 1 1 500

